X:1
T:Out of Christ
T:Out of Christ
T:Frank Marion Davis
T:Frank Marion Davis, 1892
T:Public Domain Courtesy of the Cyber Hymnal™
C:Frank Marion Davis
Z:Public Domain
Z:Courtesy of the Cyber Hymnal™
%%score ( 1 2 ) ( 3 4 )
L:1/8
Q:1/4=107
M:4/4
K:Eb
V:1 treble 
V:2 treble 
V:3 bass 
V:4 bass 
V:1
 [EG]3 [EF] E3 [EF] | [EG]2 [GB]2 [Ac]2 [GB]2 | [Ge]4 [Ac]2 [GB]2 | [GB]2 [EG]2 [DF]4 | %4
w: 1.~Out of Christ, with-|out a Sav- ior,|Oh, can it,|can it be?|
w: 2.~Out of Christ, with-|out a Sav- ior,|Lone- ly and|dark the way,|
w: 3.~Out of Christ, with-|out a Sav- ior,|No help or|ref- uge nigh,|
 [EG]3 [EF] E3 [EF] | [EG]2 [GB]2 [Ac]2 [GB]2 | [Ge]3 [Ac] [GB]2 [EG]2 | [DF]3 E E4 || %8
w: Like a ship with-|out a rud- der,|On a wild and|storm- y sea.|
w: With no light, no|hope in Je- sus,|Mak- ing bright the|cheer- less day.|
w: How can you, O|friend and bro- ther,|Dare to live or|dare to die?|
"^Refrain" [Ge]3 [Ge] [Ge]3 [Ge] | [Af]2 [Fd]2 [Ge]2 [GB]2 | [Ac]3 [Ac] [Ac]2 [ce]2 | %11
w: |||
w: Oh, to be with-|out a Sav- ior,|With no hope or|
w: |||
 [Bd]2 [Ac]2 [GB]4 | [EG]3 [EF] E2 [EF]2 | [EG]2 [GB]2 [Ac]2 [GB]2 | [Ge]3 [Ac] [GB]2 [EG]2 | %15
w: ||||
w: ref- uge nigh!|Can it be, O|bless- èd Sav- ior,|One with- out Thee|
w: ||||
 [DF]3 E E4 |] %16
w: |
w: dare to die?|
w: |
V:2
 x4 E3 x | x8 | x8 | x8 | x4 E3 x | x8 | x8 | x3 E E4 || x8 | x8 | x8 | x8 | x4 E2 x2 | x8 | x8 | %15
 x3 E E4 |] %16
V:3
 [E,B,]3 [E,A,] [E,G,]3 [E,A,] | [E,B,]2 [E,E]2 [E,E]2 [E,E]2 | [E,B,]4 [E,E]2 [E,E]2 | %3
 [E,E]2 [E,B,]2 [B,,B,]4 | [E,B,]3 [E,A,] [E,G,]3 [E,A,] | [E,B,]2 [E,E]2 [E,E]2 [E,E]2 | %6
 [E,E]3 [A,E] B,2 [B,,B,]2 | [B,,A,]3 [E,G,] [E,G,]4 || [E,B,]3 [E,B,] [E,B,]3 [E,B,] | %9
 B,2 [B,,B,]2 [E,B,]2 [E,E]2 | [A,E]3 [A,E] [A,E]2 [A,E]2 | [A,E]2 [A,E]2 [E,E]4 | %12
 [E,B,]3 [E,A,] [E,G,]2 [E,A,]2 | [E,B,]2 [E,E]2 [E,E]2 [E,E]2 | [E,E]3 [A,E] [B,E]2 [B,,B,]2 | %15
 [B,,A,]3 [E,G,] [E,G,]4 |] %16
V:4
 x8 | x8 | x8 | x8 | x8 | x8 | x4 B,2 x2 | x8 || x8 | B,2 x6 | x8 | x8 | x8 | x8 | x8 | x8 |] %16

